build/images/last-section/Vectorls-icon-6.svg

<svg width="78" height="80" viewBox="0 0 78 80" fill="none" xmlns="http://www.w3.org/2000/svg">
<path d="M63.7709 26.7845C63.7709 40.502 52.7086 51.6223 39.0625 51.6223C25.4165 51.6223 14.3542 40.502 14.3542 26.7845M63.7709 26.7845C63.7709 13.067 52.7086 1.94678 39.0625 1.94678C25.4165 1.94678 14.3542 13.067 14.3542 26.7845M63.7709 26.7845H76M14.3542 26.7845H2M71.2367 22.5319C71.418 23.9421 71.5088 25.3626 71.5086 26.7845C71.5073 31.2416 70.5974 35.651 68.8348 39.7408C67.0723 43.8306 64.4947 47.5138 61.2609 50.5631C58.0272 53.6125 54.2061 55.9632 50.0335 57.4703C45.8608 58.9773 41.4251 59.6087 37.0003 59.3254C32.5754 59.0421 28.2553 57.8502 24.3065 55.8232C20.3578 53.7962 16.8642 50.9771 14.0414 47.54C11.2187 44.1029 9.12667 40.1208 7.89453 35.8393C6.66238 31.5578 6.31625 27.0679 6.87751 22.6467M36.4906 76.5639V59.4005M42.4066 76.5639V59.231M59.6818 77.9468H19.4438M20.6183 28.6976L41.8955 7.65334M24.3049 38.0118L32.4559 29.9056M37.3443 24.9917L50.9001 11.3648" stroke="#DB0626" stroke-width="3" stroke-linecap="round" stroke-linejoin="round"/>
</svg>

<svg width="78" height="80" fill="none" xmlns="http://www.w3.org/2000/svg"><path d="M63.77 26.785c0 13.717-11.061 24.837-24.708 24.837-13.645 0-24.708-11.12-24.708-24.837m49.417 0c0-13.718-11.062-24.838-24.709-24.838-13.645 0-24.708 11.12-24.708 24.838m49.417 0H76m-61.646 0H2m69.237-4.253c.181 1.41.272 2.83.272 4.253a32.762 32.762 0 0 1-2.674 12.956 32.614 32.614 0 0 1-7.574 10.822 32.417 32.417 0 0 1-11.228 6.907 32.291 32.291 0 0 1-25.727-1.647 32.479 32.479 0 0 1-10.265-8.283 32.674 32.674 0 0 1-6.146-11.7 32.78 32.78 0 0 1-1.017-13.193M36.49 76.564V59.4m5.916 17.163V59.23m17.275 18.716H19.444m1.174-49.25L41.895 7.654m-17.59 30.359l8.15-8.106m4.89-4.914L50.9 11.365" stroke="#DB0626" stroke-width="3" stroke-linecap="round" stroke-linejoin="round"/></svg>
